assets/icons/pinterest.svg

<?xml version="1.0" encoding="UTF-8"?>
<svg width="13px" height="15px" viewBox="0 0 13 15" version="1.1" xmlns="http://www.w3.org/2000/svg" xmlns:xlink="http://www.w3.org/1999/xlink">
    <!-- Generator: Sketch 64 (93537) - https://sketch.com -->
    <title>pinterest</title>
    <desc>Created with Sketch.</desc>
    <g id="Page-1" stroke="none" stroke-width="1" fill="none" fill-rule="evenodd">
        <g id="Daxil-ol---Qeydiyyat" transform="translate(-1243.000000, -862.000000)" fill="#FFFFFF" fill-rule="nonzero">
            <g id="BOTTOM" transform="translate(0.000000, 761.000000)">
                <g id="pinterest" transform="translate(1243.000000, 101.000000)">
                    <path d="M2.8697076,6.86346979 C2.42432749,6.02760234 2.48483431,4.94783626 3.0262768,4.04460039 C4.55391813,1.50081871 9.28654971,1.92935673 9.28654971,5.42066277 C9.28654971,8.51898635 7.15695906,9.29996101 6.34853801,8.64436647 C5.63805068,8.07048733 6.88998051,6.39376218 6.88998051,4.94471735 C6.88998051,2.47391813 3.2545809,2.75524366 3.2545809,5.81614035 C3.2545809,6.41871345 3.39867446,6.88280702 3.4928655,7.12109162 C3.32444444,7.81037037 2.64140351,10.6161404 2.50042885,11.1993762 C2.45925926,11.3696686 2.11805068,14.5640546 2.89278752,14.9295906 C3.91890838,15.414269 5.14276803,11.6859259 5.40226121,10.6099025 C5.88631579,10.9386355 6.53130604,11.1438596 7.17567251,11.1438596 C13.4821053,11.1432359 14.5076023,1.66208827e-15 6.30861598,1.66208827e-15 L6.30861598,0.000623781676 C0.162495127,0.000623781676 -1.42253411,6.29582846 1.27968811,8.79719298 C2.0188694,9.47711501 3.25894737,7.59267057 2.8697076,6.86346979 L2.8697076,6.86346979 Z M6.30861598,0.935672515 C13.2538012,0.935672515 12.2707212,10.2075634 7.1762963,10.2075634 C6.43274854,10.2075634 5.76467836,9.82768031 5.57255361,9.47586745 C5.48584795,9.3174269 5.32865497,9.22635478 5.13528265,9.23259259 C4.3268616,9.27875244 4.81216374,10.9005848 3.34378168,13.3844834 C3.20904483,10.9242885 3.6562963,10.9947758 4.44038986,7.18908382 C4.49465887,6.96639376 3.74549708,5.52109162 4.59883041,4.57606238 C4.80592593,4.34588694 5.07727096,4.21426901 5.34237817,4.21426901 C6.59929825,4.21426901 5.56194932,6.34136452 5.23945419,7.66939571 C4.84335283,9.32553606 6.54502924,10.2830409 8.15625731,9.51516569 C8.77754386,9.21824561 10.222846,8.22580897 10.222846,5.42066277 C10.222846,0.97497076 4.24140351,0.20460039 2.22534113,3.56304094 C1.52545809,4.72826511 1.44810916,6.13676413 2.0188694,7.25333333 C1.99953216,7.39805068 1.83610136,7.68 1.68764133,7.8671345 C-0.0576998051,5.73380117 1.25099415,0.936296296 6.30861598,0.935672515 Z" id="Shape"></path>
                </g>
            </g>
        </g>
    </g>
</svg>

<svg width="13" height="15" xmlns="http://www.w3.org/2000/svg"><path d="M2.87 6.863c-.446-.835-.385-1.915.156-2.818C4.554 1.5 9.286 1.929 9.286 5.42c0 3.098-2.129 3.879-2.937 3.223-.71-.574.541-2.25.541-3.7 0-2.47-3.635-2.189-3.635.872 0 .603.144 1.067.238 1.305L2.5 11.2c-.04.17-.382 3.365.393 3.73 1.026.485 2.25-3.243 2.51-4.32a3.233 3.233 0 001.773.535C13.482 11.144 14.508 0 6.309 0 .162 0-1.423 6.297 1.279 8.798c.74.68 1.98-1.204 1.59-1.934zM6.309.936c6.945 0 5.962 9.272.867 9.272-.743 0-1.411-.38-1.603-.732a.463.463 0 00-.438-.243c-.808.046-.323 1.668-1.791 4.151-.135-2.46.312-2.39 1.096-6.195.055-.223-.695-1.668.159-2.613.207-.23.478-.362.743-.362 1.257 0 .22 2.127-.103 3.455-.396 1.657 1.306 2.614 2.917 1.846.622-.297 2.067-1.29 2.067-4.094 0-4.446-5.982-5.216-7.998-1.858-.7 1.165-.777 2.574-.206 3.69-.02.145-.183.427-.331.614C-.058 5.734 1.25.937 6.308.936z" fill="#FFF" fill-rule="nonzero"/></svg>
